X:200
T:Roodalum Irish,The. JC.204
R:Slip Jig
S:John Clare,Poet,Helpstone (1793-1864)
O:England
A:Northamptonshire
Z:vmp.P. Headford
M:9/8
L:1/8
Q:3/8=120
K:D
Bcd ABG FED|Bcd ABG FGA|Bcd ABG FEF|\
DED AGF EFA:|!
|:BEE BAG FED|BEE BAG FGA|\
BEE BAG FEF|DED AGF EFA:|!
|:d2d dfd cBA|d2d dfa gfe|d2d dfd cBA|\
d” D.C. 2nd Part”cB ABG FGA:|

